assets/icons/phone_colored.svg

<svg fill="none" height="512" viewBox="0 0 512 512" width="512" xmlns="http://www.w3.org/2000/svg"><g fill="#000"><path d="m183.855 3.41311h144.295c1.052.43232 2.142.76273 3.258.9867 53.639 5.62339 95.045 50.02009 95.194 102.70419.18 99.113.18 198.226 0 297.339-.07 48.234-34.582 90.352-82.368 101.065-5.301 1.194-10.693 2.063-16.033 3.079h-144.346c-1.048-.431-2.135-.762-3.247-.987-53.42-5.603-94.9946-49.812-95.1449-102.209-.2672-99.436-.2672-198.875 0-298.317.1905-48.0271 34.8609-90.0065 82.3589-100.59262 5.321-1.174 10.702-2.08158 16.033-3.06826v-.00003zm200.621 336.93089v-4.934c0-75.967 0-151.934 0-227.902.052-2.641-.126-5.281-.532-7.8925-5.772-32.8338-31.063-54.2624-65.232-54.5486-41.927-.3256-83.852-.2467-125.769 0-40.753.2073-65.815 32.8141-65.544 65.3521.621 74.477.2 148.975.2 223.453v6.421zm-257.578 41.92c.741 12.096 0 23.975 2.455 35.161 6.694 30.239 32.336 49.331 64.813 49.459 41.395.158 82.79.07 124.185 0 4.004.097 8.01-.204 11.954-.898 44.37-9.017 59.172-44.743 53.348-83.722z"/><path d="m277.046 424.684c.126 2.833-.34 5.66-1.368 8.308s-2.6 5.06-4.611 7.086c-2.014 2.027-4.43 3.625-7.095 4.696-2.666 1.071-5.528 1.593-8.406 1.53-2.879-.061-5.714-.703-8.33-1.888-2.617-1.183-4.96-2.883-6.882-4.994-1.921-2.111-3.384-4.589-4.294-7.276-.911-2.69-1.251-5.536-1.001-8.36.466-5.239 2.937-10.109 6.916-13.62 3.978-3.513 9.164-5.403 14.504-5.287 5.342.114 10.439 2.223 14.259 5.902 3.818 3.677 6.073 8.648 6.308 13.904z"/></g></svg>

<svg width="512" height="512" viewBox="0 0 512 512" fill="none" xmlns="http://www.w3.org/2000/svg">
<path d="M183.855 3.41311H328.15C329.202 3.84543 330.292 4.17584 331.408 4.39981C385.047 10.0232 426.453 54.4199 426.602 107.104C426.782 206.217 426.782 305.33 426.602 404.443C426.532 452.677 392.02 494.795 344.234 505.508C338.933 506.702 333.541 507.571 328.201 508.587H183.855C182.807 508.156 181.72 507.825 180.608 507.6C127.188 501.997 85.6134 457.788 85.4631 405.391C85.1959 305.955 85.1959 206.516 85.4631 107.074C85.6536 59.0469 120.324 17.0675 167.822 6.48138C173.143 5.30738 178.524 4.3998 183.855 3.41312L183.855 3.41309V3.41311ZM384.476 340.344V335.41C384.476 259.443 384.476 183.476 384.476 107.508C384.528 104.867 384.35 102.227 383.944 99.6155C378.172 66.7817 352.881 45.3531 318.712 45.0669C276.785 44.7413 234.86 44.8202 192.943 45.0669C152.19 45.2742 127.128 77.881 127.399 110.419C128.02 184.896 127.599 259.394 127.599 333.872V340.293L384.476 340.344L384.476 340.344L384.476 340.344V340.344ZM126.898 382.264C127.639 394.36 126.898 406.239 129.353 417.425C136.047 447.664 161.689 466.756 194.166 466.884C235.561 467.042 276.956 466.954 318.351 466.884C322.355 466.981 326.361 466.68 330.305 465.986C374.675 456.969 389.477 421.243 383.653 382.264H126.898H126.898L126.898 382.264Z" fill="black"/>
<path d="M277.046 424.684C277.172 427.517 276.706 430.344 275.678 432.992C274.65 435.64 273.078 438.052 271.067 440.078C269.053 442.105 266.637 443.703 263.972 444.774C261.306 445.845 258.444 446.367 255.566 446.304C252.687 446.243 249.852 445.601 247.236 444.416C244.619 443.233 242.276 441.533 240.354 439.422C238.433 437.311 236.97 434.833 236.06 432.146C235.149 429.456 234.809 426.61 235.059 423.786C235.525 418.547 237.996 413.677 241.975 410.166C245.953 406.653 251.139 404.763 256.479 404.879C261.821 404.993 266.918 407.102 270.738 410.781C274.556 414.458 276.811 419.429 277.046 424.685V424.684L277.046 424.684Z" fill="black"/>
</svg>
